!!!id: BC033
!!!page: 43
!!!COM: Anonymous
!!!PTL@@FR: Les 100 plus belles chansons
!!!OTL@@FR: Au clair de la lune
!!!PUB: La Bonne Chanson, inc.
!!!YEM: On ne peut reproduire, enregistrer ou diffuser en tout ou en partie le présent ouvrage, sous quelque procédé que ce soit, électronique, mécanique, photographique, sonore, magnétique ou autre, sans avoir obtenu au préalable l'autorisation écrite de l'éditrice.
!!!PDT: 2011
!!!SMA: 2012 Bibliothèque nationale du Québec; Biblothèque nationale du Canada
!!!AGN-Laforte: Chanson strophique (sans refrain), 3:8(5)
!!!AGN-type: Berceuse
!!!AGN-rime: croisées (abab)
**kern	**text	**text	**text
*k[f#]	*	*	*
*G:	*	*	*
*M4/4	*	*	*
*met(c)	*	*	*
*	*v:1	*v:2	*v:3
*	*pline:1	*pline:9=1	*pline:17
=1	=1	=1	=1
{4g	Au	Au	Dans
4g	clair	clair	son
4g	de	de	lit
4a	la	la	de
=2	=2	=2	=2
2b	lu-	lu-	plu-
2a	-ne,	-ne,	-me,
*	*rp:y	*rp:y	*rp:y
*	*rf:yn,ə	*rf:yn,ə	*rf:ym,ə
*	*rs:a1	*rs:a1	*rs:a2
*	*pline:2	*pline:10	*pline:18
=3	=3	=3	=3
4g	Mon	Pier-	Pier-
4b	a-	-rôt	-rôt
4a	-mi	ré-	se
4a	Pier-	-pon-	ren-
=4	=4	=4	=4
2g	-rot,	-dit:	-dort.
*	*rp:o	*rp:i	*rp:ɔ
*	*rf:o	*rf:i	*rf:ɔʁ
*	*rs:b	*rs:e1	*rs:c2
2r}	.	.	.
!!LO:PB:g=original
=5	=5	=5	=5
*	*pline:3	*pline:11	*pline:19
{4g	Prê-	Je	Il
4g	-te	n'ai	rêv[e]
4g	moi	pas	à
4a	ta	de	la
=6	=6	=6	=6
2b	plu-	plu-	lu-
2a	-me,	-me,	-ne:
*	*rp:y	*rp:y	*rp:y
*	*rf:ym,ə	*rf:ym,ə	*rf:yn,ə
*	*rs:a2	*rs:a2	*rs:a1
=7	=7	=7	=7
*	*pline:4	*pline:12	*pline:20
4g	Pour	Je	Son
4b	é-	suis	cœur
4a	-crir[e]	dans	bat
4a	un	mon	bien
=8	=8	=8	=8
2g	mot;	lit.	fort,
*	*rp:o	*rp:i	*rp:ɔ
*	*rf:o	*rf:i	*rf:ɔʁ
*	*rs:b	*rs:e1	*rs:c2
2r}	.	.	.
!!LO:PB:g=original
*	*pline:5	*pline:13	*pline:21
{4a	Ma	Va	Car
4a	chan-	chez	tou-
4a	dell[e]	la	-jours
4a	est	voi-	si
=9	=9	=9	=9
2e	mor-	-si-	bon-
2e	-te,	-ne:	-ne
*	*rp:ɔ	*rp:i	*rp:ɔ
*	*rf:ɔʁt,ə	*rf:zin,ə	*rf:ɔn,ə
*	*rs:c1	*rs:e2	*rs:c3
=10	=10	=10	=10
*	*pline:6	*pline:14	*pline:22
4a	Je	Je	Pour
4g	n'ai	cois	l'en-
4f#	plus	qu'ell[e]	fanc
4e	de	y	tout
2d	feu;	est,	blanc,
*	*rp:ø	*rp:ɛ	*rp:ɑ̃
*	*rf:ø	*rf:ɛ	*rf:ɑ̃
*	*rs:d	*rs:f	*rs:g
2r}	.	.	.
!!LO:PB:g=original
=11	=11	=11	=11
*	*pline:7	*pline:15	*pline:23
{4g	Ou-	Car	La
4g	-vre-	dans	lu-
4g	-moi	sa	-ne
4a	ta	cui-	lui
=2	=2	=2	=2
2b	por-	-si-	don-
2a	-te,	-ne,	-ne
*	*rp:ɔ	*rp:i	*rp:
*	*rf:ɔʁt,ə	*rf:zin,ə	*rf:ɔn,ə
*	*rs:c1	*rs:e2	*rs:c3
=3	=3	=3	=3
*	*pline:8	*pline:16	*pline:24
4g	Pour	On	Son
4b	l'a-	bat	crois-
4a	-mour	le	sant
4a	de	bri-	d'ar-
=4	=4	=4	=4
2g	Dieu.	-quet.	-gent.
*	*rp:ø	*rp:ɛ	*rp:ɑ̃
*	*rf:ø	*rf:ɛ	*rf:ɑ̃
*	*rs:d	*rs:f	*rs:f
2r}	.	.	.
==	==	==	==
*-	*-	*-	*-
!!!EED: Ève Poudrier
!!!EEV: 2025/June/09
!!!note: Missing paragraphe based on common version; possible censoreship because of content?
